modules/hawcons-filled/icons/icon-90-inbox-document.svg

<?xml version="1.0" encoding="UTF-8" standalone="no"?>
<svg width="32px" height="32px" viewBox="0 0 32 32" version="1.1" xmlns="http://www.w3.org/2000/svg" xmlns:xlink="http://www.w3.org/1999/xlink" xmlns:sketch="http://www.bohemiancoding.com/sketch/ns">
    <!-- Generator: Sketch 3.0.3 (7891) - http://www.bohemiancoding.com/sketch -->
    <title>icon 90 inbox document</title>
    <desc>Created with Sketch.</desc>
    <defs></defs>
    <g id="Page-1" stroke="none" stroke-width="1" fill="none" fill-rule="evenodd" sketch:type="MSPage">
        <g id="icon-90-inbox-document" sketch:type="MSArtboardGroup" fill="#929292">
            <path d="M19,20 L23,20 L23,13 L18.9979131,13 C17.8944962,13 17,12.1134452 17,10.9940809 L17,6 L6.9955775,6 C6.44573523,6 6,6.43891776 6,7.00307055 L6,20 L6,20 L10,20 L10,22.0020869 C10,23.1055038 10.8958578,24 11.9973917,24 L17.0026083,24 C18.1057373,24 19,23.1017394 19,22.0020869 L19,20 L19,20 Z M27,21.5 L27,20 L24,15.2 L24,12 L24,12 L18,5 L7.00276013,5 C5.89666625,5 5,5.89702623 5,7.00494659 L5,15.2 L5,15.2 L2,20 L2,29 L27,29 L27,21.5 L27,21.5 Z M5,20 L5,17.1599609 L3.22497559,20 L5,20 L5,20 L5,20 Z M25.7750244,20 L24,17.1599609 L24,20 L25.7750244,20 L25.7750244,20 L25.7750244,20 Z M18,6.5 L18,10.9912152 C18,11.5483517 18.4506511,12 18.9967388,12 L22.6999512,12 L18,6.5 L18,6.5 Z" id="inbox-document" sketch:type="MSShapeGroup"></path>
        </g>
    </g>
</svg>

<svg width="32" height="32" xmlns="http://www.w3.org/2000/svg"><path d="M19 20h4v-7h-4.002A1.995 1.995 0 0 1 17 10.994V6H6.996A.993.993 0 0 0 6 7.003V20h4v2.002c0 1.104.896 1.998 1.997 1.998h5.006A2 2 0 0 0 19 22.002V20zm8 1.5V20l-3-4.8V12l-6-7H7.003A2.003 2.003 0 0 0 5 7.005V15.2L2 20v9h25v-7.5zM5 20v-2.84L3.225 20H5zm20.775 0L24 17.16V20h1.775zM18 6.5v4.491c0 .557.45 1.009.997 1.009H22.7L18 6.5z" fill="#929292" fill-rule="evenodd"/></svg>
